src/images/header/weather-sunny.svg

<svg fill="none" height="32" viewBox="0 0 32 32" width="32" xmlns="http://www.w3.org/2000/svg"><g fill="#ffd874"><path d="m13.3106 17.413c.9961-2.7871 3.5215-4.7968 6.4805-5.1338-.9668-2.75096-3.5859-4.71871-6.666-4.71871-3.90238 0-7.06931 3.16211-7.06931 7.06541 0 1.8613.72068 3.5537 1.89843 4.8174 1.3545-1.2598 3.17088-2.0342 5.16698-2.0342.0625.0001.123.0039.1894.0039z"/><path d="m14.1534 1.50293h-2.0587v3.96287h2.0587z"/><path d="m7.37402 7.42089-2.80175-2.80175-1.45606 1.45513 2.80181 2.80268z"/><path d="m3.96287 13.5977h-3.96287v2.0586h3.96287z"/><path d="m3.11621 23.1777 1.45413 1.458 1.09862-1.0996c.17288-.8818.49806-1.709.95119-2.4541l-.70413-.7041z"/><path d="m23.1328 6.07423-1.457-1.45607-2.8008 2.80269 1.4551 1.45606z"/><path d="m26.4111 19.0215c-.5771-2.6768-2.9551-4.6826-5.8037-4.6826-2.8789 0-5.2774 2.0468-5.8222 4.7656-.3223-.0557-.6524-.0908-.9903-.0908-3.1719 0-5.74217 2.5703-5.74217 5.7412 0 3.1718 2.57027 5.7422 5.74217 5.7422h12.4629c3.1719 0 5.7422-2.5704 5.7422-5.7422 0-3.1202-2.4883-5.6523-5.5889-5.7334z"/></g></svg>

<svg width="32" height="32" viewBox="0 0 32 32" fill="none" xmlns="http://www.w3.org/2000/svg">
<g id="weather-sunny-and-cloudy-material-svgrepo-com 1">
<g id="Group">
<path id="Vector" d="M13.3106 17.413C14.3067 14.6259 16.8321 12.6162 19.7911 12.2792C18.8243 9.52824 16.2052 7.56049 13.1251 7.56049C9.22272 7.56049 6.05579 10.7226 6.05579 14.6259C6.05579 16.4872 6.77647 18.1796 7.95422 19.4433C9.30872 18.1835 11.1251 17.4091 13.1212 17.4091C13.1837 17.4092 13.2442 17.413 13.3106 17.413Z" fill="#FFD874"/>
<path id="Vector_2" d="M14.1534 1.50293H12.0947V5.4658H14.1534V1.50293Z" fill="#FFD874"/>
<path id="Vector_3" d="M7.37402 7.42089L4.57227 4.61914L3.11621 6.07427L5.91802 8.87695L7.37402 7.42089Z" fill="#FFD874"/>
<path id="Vector_4" d="M3.96287 13.5977H0V15.6563H3.96287V13.5977Z" fill="#FFD874"/>
<path id="Vector_5" d="M3.11621 23.1777L4.57034 24.6357L5.66896 23.5361C5.84184 22.6543 6.16702 21.8271 6.62015 21.082L5.91602 20.3779L3.11621 23.1777Z" fill="#FFD874"/>
<path id="Vector_6" d="M23.1328 6.07423L21.6758 4.61816L18.875 7.42085L20.3301 8.87691L23.1328 6.07423Z" fill="#FFD874"/>
<path id="Vector_7" d="M26.4111 19.0215C25.834 16.3447 23.456 14.3389 20.6074 14.3389C17.7285 14.3389 15.33 16.3857 14.7852 19.1045C14.4629 19.0488 14.1328 19.0137 13.7949 19.0137C10.623 19.0137 8.05273 21.584 8.05273 24.7549C8.05273 27.9267 10.623 30.4971 13.7949 30.4971C16.5049 30.4971 23.5918 30.4971 26.2578 30.4971C29.4297 30.4971 32 27.9267 32 24.7549C32 21.6347 29.5117 19.1026 26.4111 19.0215Z" fill="#FFD874"/>
</g>
</g>
</svg>
